src/lib/packages/icons/src/assets/filled/home-dash-star.svg

<svg width="24" height="24" viewBox="0 0 24 24" fill="none" xmlns="http://www.w3.org/2000/svg">
<path fill-rule="evenodd" clip-rule="evenodd" d="M20.2701 9.06205L13.5881 3.56901C12.6651 2.81001 11.3341 2.81001 10.4111 3.56901L3.73003 9.06205C3.16903 9.52305 2.90203 10.251 3.03203 10.965L4.48711 18.9471C4.70411 20.1351 5.73909 20.9991 6.94609 20.9991H17.052C18.26 20.9991 19.295 20.1351 19.511 18.9471L20.966 10.964C21.098 10.252 20.8311 9.52305 20.2701 9.06205ZM16.106 12.989L14.5761 14.469C14.4641 14.577 14.413 14.733 14.44 14.886L14.7901 16.911C14.8611 17.322 14.4281 17.6351 14.0561 17.4421L12.22 16.484C12.082 16.412 11.9181 16.412 11.7801 16.484L9.94499 17.4411C9.57299 17.6351 9.13901 17.3211 9.21001 16.9101L9.5601 14.886C9.5861 14.733 9.535 14.577 9.424 14.469L7.89409 12.989C7.61309 12.717 7.76805 12.242 8.15605 12.187L10.273 11.882C10.427 11.86 10.5601 11.764 10.6291 11.625L11.5461 9.78202C11.7321 9.40802 12.269 9.40802 12.455 9.78202L13.372 11.625C13.441 11.764 13.5741 11.86 13.7281 11.882L15.845 12.187C16.233 12.242 16.387 12.717 16.106 12.989Z" fill="currentColor"/>
</svg>

<svg xmlns="http://www.w3.org/2000/svg" width="24" height="24" fill="none"><path fill="currentColor" fill-rule="evenodd" d="m20.27 9.062-6.682-5.493a2.501 2.501 0 0 0-3.177 0L3.73 9.062a1.999 1.999 0 0 0-.698 1.903l1.455 7.982A2.5 2.5 0 0 0 6.947 21h10.105a2.5 2.5 0 0 0 2.459-2.052l1.455-7.983a1.993 1.993 0 0 0-.696-1.902Zm-4.164 3.927-1.53 1.48a.466.466 0 0 0-.136.417l.35 2.025a.506.506 0 0 1-.734.531l-1.836-.958a.475.475 0 0 0-.44 0l-1.835.957a.506.506 0 0 1-.735-.53l.35-2.025a.472.472 0 0 0-.136-.417l-1.53-1.48a.47.47 0 0 1 .262-.802l2.117-.305a.472.472 0 0 0 .356-.257l.917-1.843a.508.508 0 0 1 .909 0l.917 1.843a.472.472 0 0 0 .356.257l2.117.305c.388.055.542.53.261.802Z" clip-rule="evenodd"/></svg>
